X:1
T:War Song
M:4/4
L:1/8
K:E
 C| E3/2 c/2 Bc G2 F E/2D/2| B,3/2 C/2 E3/2 F/2 E2 z G| B2 G3/2 B/2 e2 d3/2 B/2|\
 c3/2 B/2 G3/2 B/2 c2 z/2| G| B3/2 B/2 G3/2 B/2 e2 d3/2 B/2| c3/2 B/2 G3/2 B/2 c2 z B,|\
 C3/2 c/2 B3/2 c/2 G2 F3/2 E/2| B,3/2 C/2 E3 F/2|| E3|
